X:1
T:Title
%%score { ( 1 3 ) | ( 2 4 ) }
L:1/8
Q:1/4=100
M:4/4
K:F
V:1 treble nm="Grand Piano"
V:3 treble 
V:2 bass 
V:4 bass 
V:1
 [A,CF]2 [A,DF]2 [CEG]2 [CFA]2 | [CFA]2 [B,EG]2 [A,CF]4 | [A,DF]2 [CEG]2 [^CEA]2 [A,EG]2 | %3
w: Simon~Cominius~Chitty * * *|||
 [A,DF]2 [=B,FG]2 [CEG]4 | [A,CF]2 [A,DF]2 [CEG]2 [CFA]2 | [CFA]2 [B,EG]2 [A,CF]4 | %6
w: |||
 [A,DF]2 [CEG]2 [^CEA]2 [A,EG]2 | [A,DF]2 [=B,FG]2 [CEG]4 | [Cc]2 z2 B2 z2 | A2 z2 z4 | %10
w: ||||
 [CFc]2 [Fd]2 [CFc]2 [CFA]2 |[M:8/4] [CFA]2 [B,EG]2 [A,F]4 z8 |[M:4/4] [B,DF]4 [A,CF]4 |] %13
w: |||
V:2
 F,2 D,2 C,2 F,,A,, | C,2 C,2 F,4 | D,2 C,2 A,,2 ^C,2 | D,2 G,,2 C,4 | F,2 D,2 C,2 F,,A,, | %5
 C,2 C,2 F,4 | D,2 C,2 A,,2 ^C,2 | D,2 G,,2 C,4 | A,2 [^F,A,D]2 .[G,D]2 [E,G,C]2 | .C2 z2 z4 | %10
 A,2 B,2 A,2 F,2 |[M:8/4] C,2 C,2 F,4 z8 |[M:4/4] B,,4 F,4 |] %13
V:3
 x8 | x8 | x8 | x8 | x8 | x8 | x8 | x8 | F_E c2 z ^C B2 | z F [=B,FG]2 [CEG]4 | x8 |[M:8/4] x16 | %12
[M:4/4] x8 |] %13
V:4
 x8 | x8 | x8 | x8 | x8 | x8 | x8 | x8 | x8 | F,-[F,A,] D,2 C,4 | x8 |[M:8/4] x16 |[M:4/4] x8 |] %13

